X: 3224
M: 6/8
L: 1/8
K: A
[|\
vc2vc cBc | A2E E2C |\
c2c cBc | A2E E2A |\
e2c cde | f2a a3 |\
[1 e2c cBA | GBA GFE :|\
[2 efe dcB | A3- A2z |]


